X:9715
T:Lloraba una Cabraliega
C:Trad.
M:3/4
L:1/4
Q:1/4=120
W:Cuando salí de Cabrales (bis)
W:lloraba una cabraliega.
W:Ella lloraba por mí (bis)
W:y yo lloraba por ella.
W:
W:Nun llores neña, nun llores, (bis)
W:nun llores nin tengas pena,
W:qu'en cumpliendo los tres años (bis)
W:caso contigo, neña.
K:C
E|: G2 E|G G G|A3/2 ~G/ F-|F2 E|G2 E|G G G|A3/2 ~G/ F-|
|F E D|C2 C|E E G|F3|D2 D|C3-|C z E :|


